X:219
%%etbk:tnset id:68,pos:1,rep:3x,ant:
%%etbk:wsite http://www.thesession.org/tunes/display/210
%%etbk:pldat 2016-05-24T17:00,2015-08-18T17:26,2015-03-24T17:00,2015-02-02T19:02,2014-12-18T18:48,2014-05-21T19:25,2014-03-25T16:02,2014-02-09T13:10,2013-12-11T19:08,2013-08-27T18:09,2013-05-01T16:18
T: Humours Of Ballyloughlin, The
Z: Piano Box Version by Martin Fleischmann
H: Created 2013-02-19 /  Last Modified 2013-02-19
M: 6/8
L: 1/8
R: jig
K: Dmix
|: !2!ABA !2!A!1!G!2!E | !4!GE!1!D D2D | !3!c2!1!A !4!ded | !3!c!1!A!4!G !3!FE!1!D | !2!ABA A!1!G!2!E |
 !1!G!2!G!1!G !4!c!1!G!2!E | !1!DED D!3!F!5!A |1 DED D3:|2 DED D2 !2!B|
|: !3!c!2!c!3!c !3!cdc | c!1!A!2!G !1!AB!3!c | !4!d3 ded | !4!d!1!A!2!F !1!D!2!F!1!A | !4!c2!2!A !5!dcB |
!4!cA!1!G !3!FGE | !1!D !3!(3D!2!D!1!D !1!D!3!F!5!A|1 DED D2 !2!B:|2 DED D2 !4!e|
|: !3!f!1!dd !4!g!1!dd | fdd gdd | !2!^c!1!d!2!e !4!ged | !2!^c!1!de !4!ged | !3!fdd !4!gdd |
fdd gdd | !2!^c!1!de !4!gag |1 e!1!d!2!^c !1!d2d:|2 e!1!d!3!^c !4!d!3!^c!2!B|
|: !5!A3 A2G | !3!F3 GFD | !2!EEE EFG | !2!E3 EF!4!G | 
!2!A!1!A!2!A !5!d!2!A!1!G| !3!F2F GE!5!A | !1!D!2!D!1!D !1!D!3!F!5!A | !1!D !3!(3D!2!D!1!D !1!D3:||


